X: 116002
Q: "Reel."
M: C
L: 1/8
K: A
ue |\
vA<Aec e2ec | (uf/g/a) ec fBBa |\
vA<Aec e2ce | {g}ua>uf ec eA A ::\
ug |\
a2ae (fe)ce | a2ae (fB)Bg |\
a2ae (fe)ce | (f/g/a) (ec) eA A :|
|: ue |\
(3(ue/f/g/) |\
aece fece | aece fBBg |\
aece fece | (f/g/a) (ec) eA A :|


